!!!ONB: MCCC : ILB0322_02 : Extracted Monophonic Melody
!!!COM: Beethoven, Ludwig van
!!!OPR: Violin Sonata No.1 in D major
!!!OMV: 2
!!!SCT: Op.12 No.1
!!!ODT: 1797///
**kern
*staff1
*clefG2
*k[f#c#g#]
*A:
*M2/4
=9
8e
8e
8a
8cc#
=10
8a
4.dd
=11
16b
16g#
8a
8g#
8a
=12
4b
8dd
8cc#
=13
8b
8a[
16a]
16b
8cc#
=14
8dd#
8ee[
16ee]
16ff#
8gg#
=15
8aa#
8aa#
8.bb
16gg#
=16
16aa
8.ff#
8ff#
8ee
=17
2r
=18
2r
=19
2r
=20
2r
=21
2r
=22
2r
=23
2r
=24
2r
=25
16r
16ee#
8ff#
16r
16cc#
8dd
=26
8dd#
8ee
16r
16b
8cc#
=27
8cc#
8dd
8cc#
8dd
=28
4ee
8gg
8ff#
=29
8f#
8f#
8b
8dd
=30
8ff#
8ff#
4ee
=31
16dd
16cc#
16cc#
16b
16a#
16b
8dd
=32
4g#
8b
8a
=33
4r
4e
=34
4e
4e[
=35
4e]
16r
16e
16a
16e
=36
16r
16e
16b
16e
16r
16e
16d#
16e
=37
16r
16e
16B
16e
16r
32c#
32f#
16a
16a
=38
16r
32d#
32f#
16a
16a
16r
32e
32g#
16b
16b
=39
16r
32e
32f#
16a#
16a#
16r
32e
32g#
16b
16b
=40
16r
32d#
32f#
16a
16a
32r
32a
32g#
32a
32g#
32a
32b
32a
=41
4g#
4e
=42
4e
4e[
=43
4e]
16r
16e
16a
16e
=44
16r
16e
16b
16e
16r
16e
16d#
16e
=45
16r
16e
16B
16e
16r
32c#
32f#
16a
16a
=46
16r
32d#
32f#
16a
16a
16r
32e
32g#
16b
16b
=47
16r
32e
32f#
16a#
16a#
16r
32e
32g#
16b
16b
=48
16r
32d#
32f#
16a
16a
32r
32a
32g#
32a
32g#
32a
32b
32a
=49
4g#
16r
16a#
16b
16a#
=50
4b
16r
16g#
16a
16g#
=51
4a
8r
8gg
=52
8ff#
8ee#
4ee#
=53
8ff#
8ee
16dd
32B
32d
16f#
16f#
=54
16r
32B
32d
16e#
16e#
16r
32B
32d
16e
16e
=55
16B
16e
16c#
16e
16r
32B
32d
16f#
16f#
=56
16r
32B
32d
16e
16e
32r
32d
32c#
32d
32c#
32d
32e
32d
=57
4c#
16r
16a#
16b
16a#
=58
4b
16r
16g#
16a
16g#
=59
4a
8r
8gg
=60
8ff#
8ee#
4ee#
=61
8ff#
8ee
16dd
32B
32d
16f#
16f#
=62
16r
32B
32d
16e#
16e#
16r
32B
32d
16e
16e
=63
16B
16e
16c#
16e
16r
32B
32d
16f#
16f#
=64
16r
32B
32d
16e
16e
32r
32d
32c#
32d
32c#
32d
32e
32d
=65
4c#
8e
32e
32g#
32a
32g#
=66
32b
32a
32cc#
32b
32dd
32cc#
32ee
32dd
32ff#
32ee
32gg#
32ff#
32aa
32gg#
32bb
32aa
=67
32ccc#
32bb
32ddd
32bb
8aa
16gg#
16gg#
32aa
32eee
32eee
32eee
=68
32eee
32aa#
32aa#
32aa#
32bb
32eee
32eee
32eee
32eee
32bb
32bb
32bb
8ddd[
=69
8ddd]
8ccc#
8bb
8aa
=70
64bb
64aa
64gg#
64aa
16bb
8ccc#
64ddd#
64ccc#
64bb
64ccc#
16ddd#
8eee
=71
64fff#
64eee
64ddd#
64eee
16fff#
8ggg#
8a#
16b
32cc#
32dd#
=72
32ee
32ff#
32gg#
32aa
32aa#
32bb
32ccc#
32bb
32bb
32aa
32gg#
32ff#
8ff#[
=73
8ff#]
8ee
8e
32e
32g#
32a
32g#
=74
32b
32a
32cc#
32b
32dd
32cc#
32ee
32dd
32ff#
32ee
32gg#
32ff#
32aa
32gg#
32bb
32aa
=75
32ccc#
32bb
32ddd
32bb
8aa
16gg#
16gg#
32aa
32eee
32eee
32eee
=76
32eee
32aa#
32aa#
32aa#
32bb
32eee
32eee
32eee
32eee
32bb
32bb
32bb
8ddd[
=77
8ddd]
8ccc#
8bb
8aa
=78
64bb
64aa
64gg#
64aa
16bb
8ccc#
64ddd#
64ccc#
64bb
64ccc#
16ddd#
8eee
=79
64fff#
64eee
64ddd#
64eee
16fff#
8ggg#
8a#
16b
32cc#
32dd#
=80
32ee
32ff#
32gg#
32aa
32aa#
32bb
32ccc#
32bb
32bb
32aa
32gg#
32ff#
8ff#[
=81
8ff#]
8ee
8ee#
8ff#[
=82
16ff#]
32gg#
64aa#
64ccc#
32bb
32aa#
32bb
32ccc#
16ddd
16ddd
8ee[
=83
16ee]
32ff#
64gg#
64bb
32aa
32gg#
32aa
32bb
16ccc#
16ccc#
16ddd
16ddd
=84
16ccc#
16ccc#
16ddd
16ddd
16eee
16eee
8ggg[
=85
8ggg]
8fff#
8f#
32f#
32a#
32b
32a#
=86
32b
32cc#
32dd
32cc#
32dd
32ee#
32ff#
32ee#
32ff#
32aa#
32bb
32aa#
32bb
32ccc#
32ddd
32ccc#
=87
4ddd
8ccc#
32ccc#[
32ccc#]
32ddd
32ccc#
=88
32eee
32ddd
32ccc#
32bb
32ddd#
32eee
32ccc#
32aa
32ccc#
32ddd
32bb
32gg#
8bb[
=89
8bb]
8aa
8ee#
8ff#[
=90
16ff#]
32gg#
64aa#
64ccc#
32bb
32aa#
32bb
32ccc#
16ddd
16ddd
8ee[
=91
16ee]
32ff#
64gg#
64bb
32aa
32gg#
32aa
32bb
16ccc#
16ccc#
16ddd
16ddd
=92
16ccc#
16ccc#
16ddd
16ddd
16eee
16eee
8ggg[
=93
8ggg]
8fff#
8f#
32f#
32a#
32b
32a#
=94
32b
32cc#
32dd
32cc#
32dd
32ee#
32ff#
32ee#
32ff#
32aa#
32bb
32aa#
32bb
32ccc#
32ddd
32ccc#
=95
4ddd
8ccc#
32ccc#[
32ccc#]
32ddd
32ccc#
=96
32eee
32ddd
32ccc#
32bb
32ddd#
32eee
32ccc#
32aa
32ccc#
32ddd
32bb
32gg#
8bb[
=97
8bb]
8aa
8r
8e
=98
8e
8a
8cc
8a
=99
2g
=100
2r
=101
2g
=102
4a
8r
8b
=103
4b
8r
8cc
=104
8ee
8b
32b[
32b]
64r
32.g
48f#
48r
48e
64r
32.d#
=105
48e
48r
48b
64r
32.a
48g#
48r
48e#
64r
32.e
48d
48r
48e#
64r
32.e
48d
48r
48c
64r
32.B
=106
4.e[
16e]
32bb
32ccc
=107
48ddd
48r
48ccc
64r
32.bb
48aa
48r
48gg
64r
32.ff#
48ee
48r
48dd
64r
32.cc
48b
48r
48a
64r
32.g#
=108
4.g[
16g]
32ccc
32ddd
=109
48eee
48r
48ddd
64r
32.ccc
48bb
48r
48aa
64r
32.gg
48ee#
48r
48ee
64r
32.dd
32cc
32b
32a
32g
=110
48f#
48r
48d
64r
32.f#
48a
48r
48dd
64r
32.ff#
32r
32d
64r
32.g
48b
48r
48dd
64r
32.gg
=111
32r
32e
64r
32.g#
48b
48r
48ee
64r
32.gg#
32r
32e
64r
32.a
48cc
48r
48ee
64r
32.aa
=112
8aa#
8bb
32bb[
32bb]
64r
32.gg
48ff#
48r
48ee
64r
32.dd#
=113
48ee
48r
48cc
64r
32.b
48a
48r
48g
64r
32.f#
8e
8a
=114
8a
8cc#
8ee
8cc#
=115
2a
=116
2r
=117
2e
=118
48d#
48r
48dd#
64r
32.dd#
48dd#
48r
48dd#
64r
32.dd#
48dd#
48r
48dd#
64r
32.dd#
48dd#
48r
48dd#
64r
32.dd#
=119
48e
48r
48a
64r
32.cc
48ee
48r
48ee
64r
32.ee
48ee
48r
48ee
64r
32.ee
48ee
48r
48ee
64r
32.ee
=120
8ee
8ee#[
32ee#]
32ee#
64r
32.ee
48dd
48r
48cc
64r
32.b
=121
48a
48r
48e#
64r
32.e
48d
48r
48c
64r
32.B
24A
24e
24d
24c#
24g
24e#
=122
4.e[
16e]
32dd
32ee
=123
48ee#
48r
48cc#
64r
32.dd
48g#
48r
48a
64r
32.e
48e#
48r
48c#
64r
32.d
24e#
24d
24A
=124
4.e[
16e]
32aa
32bb
=125
48ccc
48r
48gg#
64r
32.aa
48dd#
48r
48ee
64r
32.b
48cc
48r
48g
64r
32.a
24cc
24a
24e
=126
48d#
48r
48dd#
64r
32.dd#
48dd#
48r
48dd#
64r
32.dd#
48dd#
48r
48dd#
64r
32.dd#
48dd#
48r
48dd#
64r
32.dd#
=127
48e
48r
48a
64r
32.cc
48ee
48r
48ee
64r
32.ee
48ee
48r
48ee
64r
32.ee
48ee
48r
48ee
64r
32.ee
=128
8ee
8ee#[
32ee#]
32ee#
64r
32.ee
48dd
48r
48cc
64r
32.b
=129
48a
48r
48e#
64r
32.e
48d
48r
48c
64r
32.B
4A
=130
2r
=131
4cc#
4dd
=132
8g#
8a
4ee
=133
4ee
8dd
8cc#
=134
4r
8r
8aa[
=135
16aa]
8.aa
8gg#
8gg#
=136
8aa#
8bb
8.bb
16bb
=137
16ccc#
8.ddd#
8ddd#
8eee
=138
4r
8r
24r
24ee
24dd#
=139
48ee
48r
48cc#
64r
32.a
8r
8g#
24r
24ee
24dd#
=140
48ee
48r
48dd#
64r
64b
32b
8ee
8ee
8ee[
=141
16ee]
8.ee
8dd
8cc#
=142
16b[
16b]
8a
8b
8cc#
=143
8dd#
8ee
8ff#
8gg#
=144
8aa#
8bb
8bb
8ccc#[
=145
16ccc#]
8.ddd#
8ddd#
8eee
=146
4r
8r
8ccc[
=147
16ccc]
16bb
8bb
8r
8aa#[
=148
16aa#]
16aa
16aa
16aa
8aa
8aa[
=149
16aa]
16aa
8aa[
16aa]
32bb
32ccc#
8ddd
=150
8r
16r
16ff#
16ee
16dd
16cc#
16b
=151
16dd
16b
16a
16g#
16a
16b
16cc#
16dd
=152
16dd#
16ee
16ee#
16ff#
16ee
16dd
16cc#
16b
=153
16dd
8.g#
8b
8a
=154
8ee#
8ff#
8cc#
8dd
=155
8dd#
8ee
8b
8cc
=156
16cc#
16dd
8aa
8aa
8aa[
=157
16aa]
8.aa
8gg
8ff#
=158
2r
=159
8r
4.g
=160
16e
16c#
8a
4r
=161
4.b[
24b]
24b
24a#
=162
48b
48r
48g#
64r
32.e
8cc#
8r
24r
24cc#
24b#
=163
48cc#
48r
48a
64r
32.e
8dd
8r
24r
24dd
24cc#
=164
48dd
48r
48b
64r
32.g#
8r
8dd
8dd#[
=165
8dd#]
8ee
8aa
8ccc#
=166
8aa
8ddd[
16ddd]
16bb
8gg#
=167
4ee
8ee[
24ee]
24ee
24dd#
=168
48ee
48r
48cc#
64r
32.a
8r
4e[
=169
4e]
8r
8e
=170
2c#
=171
4A
4r
==
*-
